X:1
T:Title
%%score { ( 1 3 ) | 2 }
L:1/8
M:4/4
K:Ab
V:1 treble nm="Grand Piano"
V:3 treble 
V:2 bass 
V:1
 z4 z2[Q:1/4=100] [CA]>[DB] | [Ec]2 [Ec]>[=D_c] [E=c]2 [EB]>[EA] | F2 A2 E2 [EA]>[EA] | %3
 B2 B>B [Ge]2 d2 | c6 [CA]>[DB] | [Ec]2 [Ec]>[=D_c] [E=c]2 [EB]>[EA] | F2 A2 E2 [EA]>[FB] | %7
 c2 c2 B2 B2 |[M:3/4] [CA]6 |[M:1/4] c2 |[M:4/4] e6 z2 | e6 z2 | e>e e>e e>e d>c | B6 z2 | %14
 [Ec]>[Ec] [Ec]>[Fd] [Ec]2 [Ec]>[EB] | [FA]>[FA] [FA]>[FB] [FA]2 [EG]>F | E2 c2 c2 B2 | %17
[M:3/4] [CA]6 |] %18
V:2
 z4 z2 [A,,A,]>[A,,A,] | [A,,A,]2 [A,,A,]>[A,,A,] [A,,A,]2 [B,,A,]>[C,A,] | %2
 [D,A,D]2 [F,A,D]2 [A,C]2 [C,A,]>[C,A,] | [E,G,E]2 [E,G,E]>[E,G,E] [E,B,]2 [E,B,E]2 | %4
 [A,E]6 [A,,A,]>[A,,A,] | [A,,A,]2 [A,,A,]>[A,,A,] [A,,A,]2 [B,,G,]>[C,A,] | %6
 [D,A,D]2 [F,A,D]2 [A,C]2 [C,A,]>[D,A,] | [E,A,E]2 [E,A,E]2 [E,G,D]2 [E,G,D]2 |[M:3/4] [A,,A,]6 | %9
[M:1/4][K:treble] [A,E]2 |[M:4/4] [A,CE]2 [A,C]>[A,D] [A,E]<[A,E] [A,DA]2 | %11
 [A,CA]2 [A,C]>[A,D] [A,E]<[A,E] [A,EA]>[A,B,A] | %12
 [A,CA]>[A,CA] [A,CA]>[A,CA] [A,CA]>[K:bass][A,CE] [G,B,E]>[A,E] | %13
 [E,G,E]2 [E,G,]>[E,G,] E,>D, C,>[B,,G,] | %14
 [A,,A,]>[A,,A,] [A,,A,]>[A,,A,] [A,,A,]2 [A,,A,]>[C,A,] | %15
 [D,D]>[D,D] [D,D]>[D,D] [D,D]2 [D,D]>[D,A,D] | [E,A,C]2 [E,A,E]2 [E,A,E]2 [E,G,D]2 | %17
[M:3/4] [A,,A,]6 |] %18
V:3
 x8 | x8 | x8 | x8 | x8 | x8 | x8 | x8 |[M:3/4] x6 |[M:1/4] x2 |[M:4/4] z2 A>B c<c f2 | %11
 z2 A>B c<c c>d | x8 | z2 E>E [G,E]2 [A,EA]>[EB] | x8 | x8 | x8 |[M:3/4] x6 |] %18

